wp-content/themes/sayenko-erickson/public/images/careers/drone.svg

<?xml version="1.0" encoding="UTF-8"?>
<svg width="70px" height="70px" viewBox="0 0 70 70" version="1.1" xmlns="http://www.w3.org/2000/svg" xmlns:xlink="http://www.w3.org/1999/xlink">
    <!-- Generator: Sketch 62 (91390) - https://sketch.com -->
    <title>drone</title>
    <desc>Created with Sketch.</desc>
    <g id="Mockups" stroke="none" stroke-width="1" fill="none" fill-rule="evenodd">
        <g id="Career-Index" transform="translate(-1082.000000, -907.000000)" fill="#E9731F" fill-rule="nonzero">
            <g id="drone" transform="translate(1082.000000, 907.000000)">
                <path d="M34.72,0 C15.57472,0 0,15.57472 0,34.72 C0,53.86528 15.57472,69.44 34.72,69.44 C53.86528,69.44 69.44,53.86528 69.44,34.72 C69.44,15.57472 53.86528,0 34.72,0 Z M34.72,67.2 C16.8112,67.2 2.24,52.6288 2.24,34.72 C2.24,16.8112 16.8112,2.24 34.72,2.24 C52.6288,2.24 67.2,16.8112 67.2,34.72 C67.2,52.6288 52.6288,67.2 34.72,67.2 Z" id="Shape"></path>
                <path d="M57.83344,18.91904 C58.0944,18.2504 58.24,17.5336 58.24,16.79328 C58.24,15.89168 58.0272,14.99008 57.624,14.18256 L56.69216,12.32 L52.88192,12.32 C50.28464,12.32 47.77584,13.40976 46.00288,15.30816 L32.78128,29.47504 L32.79024,29.48288 C30.6544,30.27472 29.12,32.31312 29.12,34.72 C29.12,34.90592 29.15696,35.08064 29.17488,35.26208 L19.08368,43.4616 C17.59296,40.79936 16.8,37.79776 16.8,34.72 C16.8,27.7088 20.93728,21.30352 27.34144,18.40384 L26.41856,16.3632 C19.21472,19.62464 14.56,26.83072 14.56,34.72 C14.56,38.31296 15.52096,41.81184 17.32528,44.89072 L13.35824,48.11408 C13.21712,48.22832 13.0872,48.35152 12.9584,48.47696 C10.34992,44.36208 8.96,39.63344 8.96,34.72 C8.96,22.092 17.98832,11.41056 30.42592,9.32288 L30.05408,7.11312 C16.53344,9.38336 6.72,20.99328 6.72,34.72 C6.72,40.3984 8.41232,45.85616 11.60656,50.52096 C11.3456,51.1896 11.2,51.9064 11.2,52.64672 C11.2,53.54832 11.4128,54.44992 11.816,55.25744 L12.74784,57.12 L16.55808,57.12 C19.15536,57.12 21.66416,56.03024 23.43712,54.13184 L36.65984,39.96496 L36.65088,39.95712 C38.7856,39.16528 40.32,37.12688 40.32,34.72 C40.32,34.53408 40.28304,34.35936 40.26512,34.17792 L50.35632,25.9784 C51.84704,28.64064 52.64,31.64224 52.64,34.72 C52.64,39.49344 50.7752,43.98352 47.38944,47.36816 L48.97312,48.95184 C52.78224,45.14608 54.88,40.09152 54.88,34.72 C54.88,31.12704 53.91904,27.62816 52.11472,24.54928 L56.08176,21.32592 C56.22288,21.21168 56.3528,21.08848 56.4816,20.96304 C59.09008,25.07792 60.48,29.80656 60.48,34.72 C60.48,48.92496 48.92496,60.48 34.72,60.48 L34.72,62.72 C50.1592,62.72 62.72,50.1592 62.72,34.72 C62.72,29.0416 61.02768,23.58384 57.83344,18.91904 Z M21.79856,52.60304 C20.44784,54.05008 18.53824,54.88 16.55808,54.88 L14.13216,54.88 L13.81968,54.25616 C13.57104,53.75888 13.44,53.20224 13.44,52.64672 C13.44,51.55696 13.92496,50.53888 14.77056,49.85344 L29.9152,37.548 C30.6768,38.836 31.9256,39.7936 33.41968,40.152 L21.79856,52.60304 Z M34.72,38.08 C32.86752,38.08 31.36,36.57248 31.36,34.72 C31.36,32.86752 32.86752,31.36 34.72,31.36 C36.57248,31.36 38.08,32.86752 38.08,34.72 C38.08,36.57248 36.57248,38.08 34.72,38.08 Z M54.66944,19.58656 L39.52592,31.892 C38.76432,30.604 37.51552,29.6464 36.02144,29.288 L47.64144,16.83696 C48.99216,15.38992 50.90176,14.56 52.88192,14.56 L55.30784,14.56 L55.62032,15.18384 C55.86896,15.68112 56,16.23776 56,16.79328 C56,17.88304 55.51504,18.90112 54.66944,19.58656 Z" id="Shape"></path>
                <path d="M44.84032,49.47712 C43.93984,50.09536 43.01696,50.62064 42.09744,51.03728 L43.02256,53.07792 C44.06192,52.6064 45.10016,52.01728 46.10928,51.324 L44.84032,49.47712 Z" id="Path"></path>
                <path d="M34.72,8.96 L34.72,6.72 C33.99872,6.72 33.236,6.7536 32.38704,6.82528 L32.57296,9.05744 C33.35808,8.99136 34.06144,8.96 34.72,8.96 Z" id="Path"></path>
            </g>
        </g>
    </g>
</svg>

<svg width="70" height="70" viewBox="0 0 70 70" version="1.1" xmlns="http://www.w3.org/2000/svg"><g id="Mockups" stroke="none" stroke-width="1" fill="none" fill-rule="evenodd"><g id="Career-Index" transform="translate(-1082 -907)" fill="#E9731F" fill-rule="nonzero"><g id="drone" transform="translate(1082 907)"><path d="M34.72 0C15.575 0 0 15.575 0 34.72s15.575 34.72 34.72 34.72 34.72-15.575 34.72-34.72S53.865 0 34.72 0zm0 67.2c-17.909 0-32.48-14.571-32.48-32.48S16.811 2.24 34.72 2.24 67.2 16.811 67.2 34.72 52.629 67.2 34.72 67.2z" id="Shape"/><path d="M57.833 18.919a5.838 5.838 0 0 0 .407-2.126 5.87 5.87 0 0 0-.616-2.61l-.932-1.863h-3.81a9.448 9.448 0 0 0-6.88 2.988l-13.22 14.167.008.008c-2.136.792-3.67 2.83-3.67 5.237 0 .186.037.36.055.542l-10.091 8.2A17.875 17.875 0 0 1 16.8 34.72c0-7.011 4.137-13.416 10.541-16.316l-.922-2.04C19.215 19.623 14.56 26.83 14.56 34.72c0 3.593.961 7.092 2.765 10.17l-3.967 3.224a5.867 5.867 0 0 0-.4.363A25.592 25.592 0 0 1 8.96 34.72c0-12.628 9.028-23.31 21.466-25.397l-.372-2.21C16.534 9.383 6.72 20.993 6.72 34.72a27.838 27.838 0 0 0 4.887 15.801 5.838 5.838 0 0 0-.407 2.126c0 .901.213 1.803.616 2.61l.932 1.863h3.81a9.448 9.448 0 0 0 6.88-2.988L36.66 39.965l-.01-.008c2.136-.792 3.67-2.83 3.67-5.237 0-.186-.037-.36-.055-.542l10.091-8.2a17.875 17.875 0 0 1 2.284 8.742c0 4.773-1.865 9.264-5.25 12.648l1.583 1.584c3.81-3.806 5.907-8.86 5.907-14.232a20.09 20.09 0 0 0-2.765-10.17l3.967-3.224c.14-.114.27-.238.4-.363A25.592 25.592 0 0 1 60.48 34.72c0 14.205-11.555 25.76-25.76 25.76v2.24c15.44 0 28-12.56 28-28a27.838 27.838 0 0 0-4.887-15.801zM21.8 52.603a7.192 7.192 0 0 1-5.24 2.277h-2.427l-.312-.624a3.617 3.617 0 0 1-.38-1.61 3.58 3.58 0 0 1 1.33-2.793l15.145-12.305a5.593 5.593 0 0 0 3.505 2.604L21.799 52.603zM34.72 38.08a3.364 3.364 0 0 1-3.36-3.36 3.364 3.364 0 0 1 3.36-3.36 3.364 3.364 0 0 1 3.36 3.36 3.364 3.364 0 0 1-3.36 3.36zm19.95-18.493L39.525 31.892a5.593 5.593 0 0 0-3.505-2.604l11.62-12.451a7.192 7.192 0 0 1 5.24-2.277h2.427l.312.624c.249.497.38 1.054.38 1.61a3.58 3.58 0 0 1-1.33 2.793z" id="Shape"/><path d="M44.84 49.477c-.9.618-1.823 1.144-2.743 1.56l.926 2.04a20.256 20.256 0 0 0 3.086-1.753l-1.269-1.847zM34.72 8.96V6.72c-.721 0-1.484.034-2.333.105l.186 2.232a25.505 25.505 0 0 1 2.147-.097z" id="Path"/></g></g></g></svg>
